icons/modern/mountain.svg

<svg width="32" height="32" viewBox="0 0 32 32" fill="none" xmlns="http://www.w3.org/2000/svg">
<path d="M8.96108 9.83507C7.66782 9.83507 7.51414 10.5635 7.59896 10.9277V25.3326H29.9916V15.059L22.9265 8.03882H12.2391C11.1764 9.0866 10.5777 9.83507 8.96108 9.83507Z" fill="url(#paint0_radial_18_4930)"/>
<path d="M8.96108 9.83507C7.66782 9.83507 7.51414 10.5635 7.59896 10.9277V25.3326H29.9916V15.059L22.9265 8.03882H12.2391C11.1764 9.0866 10.5777 9.83507 8.96108 9.83507Z" fill="url(#paint1_linear_18_4930)"/>
<path d="M8.96108 9.83507C7.66782 9.83507 7.51414 10.5635 7.59896 10.9277V25.3326H29.9916V15.059L22.9265 8.03882H12.2391C11.1764 9.0866 10.5777 9.83507 8.96108 9.83507Z" fill="url(#paint2_radial_18_4930)"/>
<g filter="url(#filter0_f_18_4930)">
<path d="M19.1449 7.37598L28.6743 16.8497" stroke="url(#paint3_linear_18_4930)" stroke-width="2" stroke-linecap="round"/>
</g>
<path d="M16.0446 9.80281C14.4967 9.80281 13.2886 9.25543 11.7878 8.49092C12.4422 7.8365 14.0436 6.2332 15.214 5.05531C16.6769 3.58295 18.6401 3.71506 19.9521 5.05531C21.0016 6.12751 22.5602 7.67289 23.2083 8.31155C23.1045 8.2801 22.7137 8.2172 21.9813 8.2172C21.0658 8.2172 20.0087 8.56642 19.4046 8.88733C18.8006 9.20823 17.5925 9.80281 16.0446 9.80281Z" fill="url(#paint4_linear_18_4930)"/>
<path d="M16.0446 9.80281C14.4967 9.80281 13.2886 9.25543 11.7878 8.49092C12.4422 7.8365 14.0436 6.2332 15.214 5.05531C16.6769 3.58295 18.6401 3.71506 19.9521 5.05531C21.0016 6.12751 22.5602 7.67289 23.2083 8.31155C23.1045 8.2801 22.7137 8.2172 21.9813 8.2172C21.0658 8.2172 20.0087 8.56642 19.4046 8.88733C18.8006 9.20823 17.5925 9.80281 16.0446 9.80281Z" fill="url(#paint5_linear_18_4930)"/>
<path d="M16.0446 9.80281C14.4967 9.80281 13.2886 9.25543 11.7878 8.49092C12.4422 7.8365 14.0436 6.2332 15.214 5.05531C16.6769 3.58295 18.6401 3.71506 19.9521 5.05531C21.0016 6.12751 22.5602 7.67289 23.2083 8.31155C23.1045 8.2801 22.7137 8.2172 21.9813 8.2172C21.0658 8.2172 20.0087 8.56642 19.4046 8.88733C18.8006 9.20823 17.5925 9.80281 16.0446 9.80281Z" fill="url(#paint6_radial_18_4930)"/>
<path d="M16.0446 9.80281C14.4967 9.80281 13.2886 9.25543 11.7878 8.49092C12.4422 7.8365 14.0436 6.2332 15.214 5.05531C16.6769 3.58295 18.6401 3.71506 19.9521 5.05531C21.0016 6.12751 22.5602 7.67289 23.2083 8.31155C23.1045 8.2801 22.7137 8.2172 21.9813 8.2172C21.0658 8.2172 20.0087 8.56642 19.4046 8.88733C18.8006 9.20823 17.5925 9.80281 16.0446 9.80281Z" fill="url(#paint7_radial_18_4930)"/>
<path d="M5.95235 11.257C5.05425 12.3467 2.93714 14.8762 1.99084 16.0047V25.3273H22.9564L15.8165 18.1574C14.7508 17.0797 13.3467 16.2265 11.7002 16.2265C9.97884 16.2265 8.97596 14.7596 8.97596 13.0233C8.97596 11.6312 8.96095 10.763 8.97596 9.83496C8.06289 9.83496 7.07498 9.89488 5.95235 11.257Z" fill="url(#paint8_linear_18_4930)"/>
<g filter="url(#filter1_i_18_4930)">
<path d="M10.9968 23.0371C7.04513 21.6749 4.14124 21.9444 2.01575 22.4832V30.0124H29.9843V22.4778C26.811 23.8847 23.4055 25.0429 19.9927 25.0429C16.58 25.0429 14.9484 24.3992 10.9968 23.0371Z" fill="url(#paint9_radial_18_4930)"/>
</g>
<path d="M10.9968 23.0371C7.04513 21.6749 4.14124 21.9444 2.01575 22.4832V30.0124H29.9843V22.4778C26.811 23.8847 23.4055 25.0429 19.9927 25.0429C16.58 25.0429 14.9484 24.3992 10.9968 23.0371Z" fill="url(#paint10_radial_18_4930)"/>
<defs>
<filter id="filter0_f_18_4930" x="16.1449" y="4.37598" width="15.5294" height="15.4736" filterUnits="userSpaceOnUse" color-interpolation-filters="sRGB">
<feFlood flood-opacity="0" result="BackgroundImageFix"/>
<feBlend mode="normal" in="SourceGraphic" in2="BackgroundImageFix" result="shape"/>
<feGaussianBlur stdDeviation="1" result="effect1_foregroundBlur_18_4930"/>
</filter>
<filter id="filter1_i_18_4930" x="2.01575" y="21.7932" width="28.2186" height="8.21924" filterUnits="userSpaceOnUse" color-interpolation-filters="sRGB">
<feFlood flood-opacity="0" result="BackgroundImageFix"/>
<feBlend mode="normal" in="SourceGraphic" in2="BackgroundImageFix" result="shape"/>
<feColorMatrix in="SourceAlpha" type="matrix" values="0 0 0 0 0 0 0 0 0 0 0 0 0 0 0 0 0 0 127 0" result="hardAlpha"/>
<feOffset dx="0.25" dy="-0.25"/>
<feGaussianBlur stdDeviation="1"/>
<feComposite in2="hardAlpha" operator="arithmetic" k2="-1" k3="1"/>
<feColorMatrix type="matrix" values="0 0 0 0 0.145098 0 0 0 0 0.298039 0 0 0 0 0.278431 0 0 0 1 0"/>
<feBlend mode="normal" in2="shape" result="effect1_innerShadow_18_4930"/>
</filter>
<radialGradient id="paint0_radial_18_4930" cx="0" cy="0" r="1" gradientUnits="userSpaceOnUse" gradientTransform="translate(10.6718 8.03882) rotate(46.167) scale(20.9368 25.5307)">
<stop stop-color="#644E46"/>
<stop offset="0.342372" stop-color="#9A6B5B"/>
<stop offset="1" stop-color="#BA7B67"/>
</radialGradient>
<linearGradient id="paint1_linear_18_4930" x1="30.6805" y1="19.3574" x2="28.6743" y2="19.3574" gradientUnits="userSpaceOnUse">
<stop stop-color="#987469"/>
<stop offset="1" stop-color="#987469" stop-opacity="0"/>
</linearGradient>
<radialGradient id="paint2_radial_18_4930" cx="0" cy="0" r="1" gradientUnits="userSpaceOnUse" gradientTransform="translate(17.4174 4.86822) rotate(86.3696) scale(21.6099 28.0052)">
<stop offset="0.858236" stop-color="#9D6F60" stop-opacity="0"/>
<stop offset="1" stop-color="#9D6F60"/>
</radialGradient>
<linearGradient id="paint3_linear_18_4930" x1="19.4235" y1="7.8218" x2="30.2904" y2="17.8528" gradientUnits="userSpaceOnUse">
<stop offset="0.640625" stop-color="#BB8672"/>
<stop offset="1" stop-color="#BB8672" stop-opacity="0"/>
</linearGradient>
<linearGradient id="paint4_linear_18_4930" x1="16.0149" y1="10.8901" x2="16.0149" y2="3.42347" gradientUnits="userSpaceOnUse">
<stop stop-color="#D4CAD6"/>
<stop offset="1" stop-color="#DEDDE8"/>
</linearGradient>
<linearGradient id="paint5_linear_18_4930" x1="9.7269" y1="4" x2="15.7708" y2="9.22307" gradientUnits="userSpaceOnUse">
<stop offset="0.213355" stop-color="#8D8B8C"/>
<stop offset="0.374874" stop-color="#9A9692"/>
<stop offset="1" stop-color="#9A9692" stop-opacity="0"/>
</linearGradient>
<radialGradient id="paint6_radial_18_4930" cx="0" cy="0" r="1" gradientUnits="userSpaceOnUse" gradientTransform="translate(18.9669 10.9228) rotate(-90) scale(8.56232 12.3092)">
<stop offset="0.74617" stop-color="#9A9692" stop-opacity="0"/>
<stop offset="1" stop-color="#9A9692"/>
</radialGradient>
<radialGradient id="paint7_radial_18_4930" cx="0" cy="0" r="1" gradientUnits="userSpaceOnUse" gradientTransform="translate(22.8786 7.82178) rotate(138.759) scale(5.41017 6.50926)">
<stop stop-color="#F8F7FD"/>
<stop offset="1" stop-color="#F8F7FD" stop-opacity="0"/>
</radialGradient>
<linearGradient id="paint8_linear_18_4930" x1="3.42175" y1="12.2043" x2="16.6718" y2="23.6418" gradientUnits="userSpaceOnUse">
<stop stop-color="#4A3B36"/>
<stop offset="1" stop-color="#7C5B51"/>
</linearGradient>
<radialGradient id="paint9_radial_18_4930" cx="0" cy="0" r="1" gradientUnits="userSpaceOnUse" gradientTransform="translate(22.4141 26.6143) rotate(180) scale(19.0818 24.2835)">
<stop offset="0.178918" stop-color="#3CCC79"/>
<stop offset="1" stop-color="#3B9B76"/>
</radialGradient>
<radialGradient id="paint10_radial_18_4930" cx="0" cy="0" r="1" gradientUnits="userSpaceOnUse" gradientTransform="translate(14.6093 23.5168) rotate(98.7462) scale(4.1103 9.10443)">
<stop offset="0.166474" stop-color="#42B671"/>
<stop offset="1" stop-color="#42B671" stop-opacity="0"/>
</radialGradient>
</defs>
</svg>

<svg width="32" height="32" fill="none" xmlns="http://www.w3.org/2000/svg"><path d="M8.961 9.835c-1.293 0-1.447.728-1.362 1.093v14.405h22.393V15.059l-7.066-7.02H12.24c-1.063 1.048-1.661 1.796-3.278 1.796Z" fill="url(#a)"/><path d="M8.961 9.835c-1.293 0-1.447.728-1.362 1.093v14.405h22.393V15.059l-7.066-7.02H12.24c-1.063 1.048-1.661 1.796-3.278 1.796Z" fill="url(#b)"/><path d="M8.961 9.835c-1.293 0-1.447.728-1.362 1.093v14.405h22.393V15.059l-7.066-7.02H12.24c-1.063 1.048-1.661 1.796-3.278 1.796Z" fill="url(#c)"/><g filter="url(#d)"><path d="m19.145 7.376 9.53 9.474" stroke="url(#e)" stroke-width="2" stroke-linecap="round"/></g><path d="M16.045 9.803c-1.548 0-2.756-.548-4.257-1.312.654-.654 2.256-2.258 3.426-3.436 1.463-1.472 3.426-1.34 4.738 0a308.21 308.21 0 0 0 3.256 3.257c-.103-.032-.494-.095-1.227-.095-.915 0-1.972.35-2.576.67-.604.321-1.813.916-3.36.916Z" fill="url(#f)"/><path d="M16.045 9.803c-1.548 0-2.756-.548-4.257-1.312.654-.654 2.256-2.258 3.426-3.436 1.463-1.472 3.426-1.34 4.738 0a308.21 308.21 0 0 0 3.256 3.257c-.103-.032-.494-.095-1.227-.095-.915 0-1.972.35-2.576.67-.604.321-1.813.916-3.36.916Z" fill="url(#g)"/><path d="M16.045 9.803c-1.548 0-2.756-.548-4.257-1.312.654-.654 2.256-2.258 3.426-3.436 1.463-1.472 3.426-1.34 4.738 0a308.21 308.21 0 0 0 3.256 3.257c-.103-.032-.494-.095-1.227-.095-.915 0-1.972.35-2.576.67-.604.321-1.813.916-3.36.916Z" fill="url(#h)"/><path d="M16.045 9.803c-1.548 0-2.756-.548-4.257-1.312.654-.654 2.256-2.258 3.426-3.436 1.463-1.472 3.426-1.34 4.738 0a308.21 308.21 0 0 0 3.256 3.257c-.103-.032-.494-.095-1.227-.095-.915 0-1.972.35-2.576.67-.604.321-1.813.916-3.36.916Z" fill="url(#i)"/><path d="M5.952 11.257c-.898 1.09-3.015 3.62-3.961 4.748v9.322h20.965l-7.14-7.17c-1.065-1.077-2.47-1.93-4.116-1.93-1.721 0-2.724-1.467-2.724-3.204 0-1.392-.015-2.26 0-3.188-.913 0-1.901.06-3.024 1.422Z" fill="url(#j)"/><g filter="url(#k)"><path d="M10.997 23.037c-3.952-1.362-6.856-1.093-8.981-.554v7.53h27.968v-7.535c-3.173 1.407-6.579 2.565-9.991 2.565-3.413 0-5.045-.644-8.996-2.006Z" fill="url(#l)"/></g><path d="M10.997 23.037c-3.952-1.362-6.856-1.093-8.981-.554v7.53h27.968v-7.535c-3.173 1.407-6.579 2.565-9.991 2.565-3.413 0-5.045-.644-8.996-2.006Z" fill="url(#m)"/><defs><radialGradient id="a" cx="0" cy="0" r="1" gradientUnits="userSpaceOnUse" gradientTransform="rotate(46.167 -4.095 16.54) scale(20.9368 25.5307)"><stop stop-color="#644E46"/><stop offset=".342" stop-color="#9A6B5B"/><stop offset="1" stop-color="#BA7B67"/></radialGradient><radialGradient id="c" cx="0" cy="0" r="1" gradientUnits="userSpaceOnUse" gradientTransform="rotate(86.37 6.115 11.713) scale(21.6099 28.0052)"><stop offset=".858" stop-color="#9D6F60" stop-opacity="0"/><stop offset="1" stop-color="#9D6F60"/></radialGradient><radialGradient id="h" cx="0" cy="0" r="1" gradientUnits="userSpaceOnUse" gradientTransform="matrix(0 -8.56232 12.3092 0 18.967 10.923)"><stop offset=".746" stop-color="#9A9692" stop-opacity="0"/><stop offset="1" stop-color="#9A9692"/></radialGradient><radialGradient id="i" cx="0" cy="0" r="1" gradientUnits="userSpaceOnUse" gradientTransform="matrix(-4.06814 3.56653 -4.29108 -4.8946 22.879 7.822)"><stop stop-color="#F8F7FD"/><stop offset="1" stop-color="#F8F7FD" stop-opacity="0"/></radialGradient><radialGradient id="l" cx="0" cy="0" r="1" gradientUnits="userSpaceOnUse" gradientTransform="matrix(-19.0818 0 0 -24.2835 22.414 26.614)"><stop offset=".179" stop-color="#3CCC79"/><stop offset="1" stop-color="#3B9B76"/></radialGradient><radialGradient id="m" cx="0" cy="0" r="1" gradientUnits="userSpaceOnUse" gradientTransform="rotate(98.746 -2.783 18.025) scale(4.1103 9.10443)"><stop offset=".166" stop-color="#42B671"/><stop offset="1" stop-color="#42B671" stop-opacity="0"/></radialGradient><linearGradient id="b" x1="30.68" y1="19.357" x2="28.674" y2="19.357" gradientUnits="userSpaceOnUse"><stop stop-color="#987469"/><stop offset="1" stop-color="#987469" stop-opacity="0"/></linearGradient><linearGradient id="e" x1="19.424" y1="7.822" x2="30.29" y2="17.853" gradientUnits="userSpaceOnUse"><stop offset=".641" stop-color="#BB8672"/><stop offset="1" stop-color="#BB8672" stop-opacity="0"/></linearGradient><linearGradient id="f" x1="16.015" y1="10.89" x2="16.015" y2="3.423" gradientUnits="userSpaceOnUse"><stop stop-color="#D4CAD6"/><stop offset="1" stop-color="#DEDDE8"/></linearGradient><linearGradient id="g" x1="9.727" y1="4" x2="15.771" y2="9.223" gradientUnits="userSpaceOnUse"><stop offset=".213" stop-color="#8D8B8C"/><stop offset=".375" stop-color="#9A9692"/><stop offset="1" stop-color="#9A9692" stop-opacity="0"/></linearGradient><linearGradient id="j" x1="3.422" y1="12.204" x2="16.672" y2="23.642" gradientUnits="userSpaceOnUse"><stop stop-color="#4A3B36"/><stop offset="1" stop-color="#7C5B51"/></linearGradient><filter id="d" x="16.145" y="4.376" width="15.529" height="15.474" filterUnits="userSpaceOnUse" color-interpolation-filters="sRGB"><feFlood flood-opacity="0" result="BackgroundImageFix"/><feBlend in="SourceGraphic" in2="BackgroundImageFix" result="shape"/><feGaussianBlur stdDeviation="1" result="effect1_foregroundBlur_18_4930"/></filter><filter id="k" x="2.016" y="21.793" width="28.219" height="8.219" filterUnits="userSpaceOnUse" color-interpolation-filters="sRGB"><feFlood flood-opacity="0" result="BackgroundImageFix"/><feBlend in="SourceGraphic" in2="BackgroundImageFix" result="shape"/><feColorMatrix in="SourceAlpha" values="0 0 0 0 0 0 0 0 0 0 0 0 0 0 0 0 0 0 127 0" result="hardAlpha"/><feOffset dx=".25" dy="-.25"/><feGaussianBlur stdDeviation="1"/><feComposite in2="hardAlpha" operator="arithmetic" k2="-1" k3="1"/><feColorMatrix values="0 0 0 0 0.145098 0 0 0 0 0.298039 0 0 0 0 0.278431 0 0 0 1 0"/><feBlend in2="shape" result="effect1_innerShadow_18_4930"/></filter></defs></svg>
